X:2289
T:Bulgarian (?) 6
S:Ian McArdle
R:Other
O:Bulgaria ?
M:2/4
K:A
"A"ABcc cAcc|cABc BAAz | \
edcB cABc | ABBA A2z2 ::
"F#m"~c2BA "Hm"~B2AG |"F#m"FEFG A2B2|\
~c2BA "Hm"~B2AG| "F#m"FEF2 F2z2 ::
"F#m"agff fefg| aege abc'z |\
agff fefg | "E"abge "F#m"f2z2 ::
"A"deee de~c2 | defe de~c2 |\
deee de~c2|defe de~c2|
deee de~c2|defe de~c2|\
deee de~c2|defe dec2 ::
"F#m"edcc cFed|cGed cccF| \
edcc cFed|cccF cccF :|


